dist/assets/img/nhl/teams/ott.svg

<svg xmlns="http://www.w3.org/2000/svg" viewBox="0 0 24 16"><path d="M14.901 5.909l-1.534-2.096-.498.231s-.332-.127-.905-.203l.36-.363v-.824h-.254c.443-.719-.256-1.465 1.022-2.334H9.789c-2.494.841-1.873 5.522-1.873 5.522l.478-.181s-.298.625-.172 1.095c0 0-.328.712.071 1.392l-.236.332.051 1.524c-.333.58-1.592.265-1.708.916-.049.275-.714.505-.714.505-.698 2.079 4.616 2.47 5.49 3.75a5.005 5.005 0 0 0 3.725-9.266z"/><path d="M10.016 2.433L9.771.847c-1.753.748-1.519 4.338-1.519 4.338l1.782-2.587h1.644c.284-.563-.063-1.46.566-1.845h-2.169l-.059 1.68zm-.543 10.745c.718.16 1.678.769 1.678.769-.07-.254-.275-.498-.275-.498a4.98 4.98 0 0 1-1.93-1.132l-1.839-1.011s1.096.006.998-.805c-.475.349-1.387.213-1.387.589 0 .413.724.833 2.148 1.737l-2.203-1.01.132-.144-.152-.295c-.016.113-.575.115-.575.492 0 1.329 4.703 1.825 5.566 3.082.102-.653-1.184-1.275-2.161-1.774zm5.734-2.424s.475.409.475.55c0 .142-.995.729-.995.729.334-.461.604-.684.604-.883 0-.197-.353-.251-.448-.628-.36.58-.378.953-.378.953l.177 1.214-.482-.059c-1.01 1.009-.898 2.117-.898 2.117.635-1.837 2.783-1.863 2.783-3.598-.162-.128-.838-.395-.838-.395z" fill="#CE1126"/><path fill="#FFF" d="M13.246 10.815l.302-.146-.329-1.282.132-.394.905-.348.263.112-.036-.412s-.259-.249-.56-.249c-.293 0-.41.21-.811.696 0 0-.231-.606-1.172-.606-.796 0-1.751.371-1.751.371-.168.229-.146.718 1.002.632l-.163.754.636.091s-.81 1.787-.365 2.217c.422.406.856.843 1.006.843.592 0 .965-.154 1.038-.228.033-.033.056-.106.056-.199 0-.331-.328-.368-.587-.368-.558 0-.759.195-.759.195l.106-.361c.07-.264 1.196-.125 1.196-.125l-.026-.35-.224.034-.473-.073-1.115.03-.055-.041 1.33-.235.29.059.25-.062-.136-.121-.145.057-.028-.295-.793-.133.625-.217.391.154z"/><path fill="#FFF" d="M14.388 9.116l-.252.048c-.104.419-.401.246-.447.145l-.119.434.199.652.166.358-.286.24.222.251.077.181.323-1.063.26-.426c.046-.073-.212-.582-.212-.582l.069-.238zm-2.454 4.661l.709.485.187-.645-.621-.089z"/><path d="M17.465 14.472a.295.295 0 1 0 0 .592.297.297 0 0 0 0-.592zm0 .528a.232.232 0 1 1 0-.463.232.232 0 0 1 0 .463z"/><path d="M17.586 14.699a.1.1 0 0 0-.101-.101h-.142v.338h.062V14.8h.046l.064.137h.069l-.066-.143a.101.101 0 0 0 .068-.095zm-.101.037h-.079v-.074h.079c.021 0 .037.017.037.037s-.015.037-.037.037z"/><g fill="#BF910C"><path d="M14.633 8.022l-1.439-.824-2.878.98s1.066-.277 1.851-.277c.854 0 1.003.46 1.003.46s.264-.476.662-.476c.48 0 .814.28.814.28l-.013-.143zM11.549 3.87l.241-.256h-1.25l-1.044.842.924-1.083h1.517V2.93h-1.649L8.813 4.929l.07.344s.813-1.403 2.666-1.403z"/><path d="M10.582 11.396c0-.97.236-1.976.236-1.976s-1.441.1-1.185-1.116c0 0-.314.256-.599.145 0 0 .541-.144.541-.734l.141.43 3.741-1.494 1.473 1.28-.033-.576c-.165.06-.519-.184-.519-.184l.054-.045s.239.123.453.035l-.033-.568-1.62-2.253-.368.138s-.793-.335-1.562-.335c-1.175 0-2.638 1.162-2.638 2.446l.787.058L11.6 5.052 9.44 7.165s-.191-.373-.466-.373c-.189 0-.481.226-.481.78 0 .436.214.649.214.649l-.252.341c.185 2.73-.124 3.009-.685 2.854l1.096.529c0-1.912-.071-2.493.116-2.493.308 0 .276 1.901.357 2.795 0 0 .791.917 2.363 1.067.001-.001-1.12-.713-1.12-1.918zm3.561.412l-.184.489.285.047zm1.238-5.232v1.622a3.186 3.186 0 0 1 1.182 2.477 3.197 3.197 0 0 1-2.115 3.005c-.521.851-.376 1.352-.311 1.497a4.573 4.573 0 0 0 3.801-4.502 4.571 4.571 0 0 0-2.557-4.099z"/></g><path d="M11.611 7.041l-.111-.069c-.755.142-.626-.116-.81-.116.072-.071.006-.211.198-.403l-.017-.023c-.468.278-.196.449-.518.617l.012.027c.385-.13.244.339 1.246-.033z"/><path d="M12.111 6.558l-.061-.025c-.545.255-.543.007-.652.041.056-.094-.107-.208.261-.562l-.005-.035c-.639.425-.334.591-.535.793l.019.025c.218-.139.234.255.973-.237zm-1.48.825s-.067-.062-.145-.093c-.428.044-.365-.125-.513-.118.132-.102-.009-.184.095-.287l-.018-.022c-.384.216-.152.354-.376.446l.011.027c.216-.065.19.286.946.047zm-1.388-.212c.223.556-.176.945-.337.945s-.26-.202-.26-.202.121.396.366.396.709-.586.231-1.139z"/><path d="M12.578 6.073l-.041-.013c-.424.226-.452.053-.516.071.045-.092-.146-.116.128-.468l-.011-.064c-.597.529-.169.546-.427.762l.028.011c.23-.188.186.199.839-.299zm-2.319-1.446c-1.452.72-1.399 1.727-1.399 1.727l.475.022.895-.585c-.637.175-1.663.097.029-1.164zm3.317 1.542c-.779.214-.842-.927-.623-1.165-.859.551.195 1.854.623 1.165zm.486.528l-.043.024c.454.489.456.149.615.289l.021-.036c-.129-.198.053-.379-.362-.81l-.002.043c.232.304.127.467.196.593-.11-.051-.131.152-.425-.103z"/><path d="M14.21 6.558l.019-.024c-.132-.226.126-.276-.229-.785l-.015.066c.16.336.023.407.06.484-.06-.016-.115.103-.313-.131l-.034.012c.315.508.385.193.512.378zm3.039 4.499c-.054.276-.28.018-.406.666.098.019.184-.2.311-.176.127.025.125.261.222.279.125-.647-.181-.493-.127-.769z"/><circle cx="17.25" cy="10.675" r=".237"/><path d="M15.384 13.691c.063.076.27-.037.352.062.082.1-.069.28-.006.357.509-.42.174-.495.392-.675-.219.18-.228-.164-.738.256zm1.515-1.363c-.144.243-.27-.076-.604.493.085.05.239-.127.351-.062s.031.286.116.337c.335-.569-.006-.525.137-.768z"/><path d="M15.877 13.296c.075.064.259-.083.356 0 .099.084-.02.288.057.353.429-.502.086-.519.269-.732-.183.213-.252-.123-.682.379zm.947-3.729c.138.646.358.384.418.66-.06-.276.25-.127.112-.772-.097.021-.091.256-.217.282-.125.028-.216-.19-.313-.17zm-.549-1.063c.34.566.464.246.609.487-.146-.241.195-.2-.145-.767-.084.051-.003.271-.113.338s-.266-.109-.351-.058z"/><path d="M16.594 9.013c.242.614.418.319.521.582-.104-.263.226-.166-.017-.78-.092.036-.047.268-.167.314-.119.048-.244-.152-.337-.116zm.539 2.677c-.099.265-.279-.027-.511.591.093.034.215-.167.336-.122.12.046.08.277.172.312.231-.618-.096-.516.003-.781zm-.574-3.255c-.183-.214.16-.229-.269-.732-.075.064.042.269-.056.353-.099.084-.282-.064-.357 0 .43.501.499.165.682.379zm-.521-.603c.157-.206-.612-.469-.612-.469s.454.675.612.469zm-1.267 6.188c.048.087.271.015.333.128s-.121.262-.074.349c.58-.314.266-.452.514-.587-.248.134-.191-.205-.773.11z"/><path d="M14.164 14.491s.813.017.736-.23c-.078-.247-.736.23-.736.23zm-3.895-5.686l1.265.177c.042.212.371.412.6.091l.346.099-.278.218.533.073.209-.411-1.204-.489-1.471.242z"/></svg>

<svg xmlns="http://www.w3.org/2000/svg" viewBox="0 0 24 16"><path d="M14.901,5.909l-1.534-2.096l-0.498,0.231c0,0-0.332-0.127-0.905-0.203l0.36-0.363V2.654h-0.254 c0.443-0.719-0.256-1.465,1.022-2.334H9.789C7.295,1.161,7.916,5.842,7.916,5.842l0.478-0.181c0,0-0.298,0.625-0.172,1.095 c0,0-0.328,0.712,0.071,1.392L8.057,8.48l0.051,1.524C7.775,10.584,6.516,10.269,6.4,10.92c-0.049,0.275-0.714,0.505-0.714,0.505 c-0.698,2.079,4.616,2.47,5.49,3.75c0.663,0.323,1.408,0.506,2.196,0.506c2.765,0,5.005-2.241,5.005-5.006 C18.377,8.444,16.917,6.555,14.901,5.909z"/><g fill="#CE1126"><path d="M10.016 2.433L9.771.847C8.018 1.595 8.252 5.185 8.252 5.185l1.782-2.587h1.644c.284-.563-.063-1.46.566-1.845h-2.169L10.016 2.433zM9.473 13.178c.718.16 1.678.769 1.678.769-.07-.254-.275-.498-.275-.498-1.207-.381-1.93-1.132-1.93-1.132l-1.839-1.011c0 0 1.096.006.998-.805C7.63 10.85 6.718 10.714 6.718 11.09c0 .413.724.833 2.148 1.737l-2.203-1.01.132-.144-.152-.295c-.016.113-.575.115-.575.492 0 1.329 4.703 1.825 5.566 3.082C11.736 14.299 10.45 13.677 9.473 13.178zM15.207 10.754c0 0 .475.409.475.55 0 .142-.995.729-.995.729.334-.461.604-.684.604-.883 0-.197-.353-.251-.448-.628-.36.58-.378.953-.378.953l.177 1.214-.482-.059c-1.01 1.009-.898 2.117-.898 2.117.635-1.837 2.783-1.863 2.783-3.598C15.883 11.021 15.207 10.754 15.207 10.754z"/></g><path fill="#FFF" d="M13.246,10.815l0.302-0.146l-0.329-1.282l0.132-0.394l0.905-0.348l0.263,0.112l-0.036-0.412 c0,0-0.259-0.249-0.56-0.249c-0.293,0-0.41,0.21-0.811,0.696c0,0-0.231-0.606-1.172-0.606c-0.796,0-1.751,0.371-1.751,0.371 c-0.168,0.229-0.146,0.718,1.002,0.632l-0.163,0.754l0.636,0.091c0,0-0.81,1.787-0.365,2.217c0.422,0.406,0.856,0.843,1.006,0.843 c0.592,0,0.965-0.154,1.038-0.228c0.033-0.033,0.056-0.106,0.056-0.199c0-0.331-0.328-0.368-0.587-0.368 c-0.558,0-0.759,0.195-0.759,0.195l0.106-0.361c0.07-0.264,1.196-0.125,1.196-0.125l-0.026-0.35l-0.224,0.034l-0.473-0.073 l-1.115,0.03l-0.055-0.041l1.33-0.235l0.29,0.059l0.25-0.062l-0.136-0.121l-0.145,0.057l-0.028-0.295l-0.793-0.133l0.625-0.217 L13.246,10.815z"/><path fill="#FFF" d="M14.388 9.116l-.252.048c-.104.419-.401.246-.447.145l-.119.434.199.652.166.358-.286.24.222.251.077.181.323-1.063.26-.426c.046-.073-.212-.582-.212-.582L14.388 9.116zM11.934 13.777L12.643 14.262 12.83 13.617 12.209 13.528z"/><path d="M17.465,14.472c-0.164,0-0.296,0.132-0.296,0.296c0,0.163,0.132,0.296,0.296,0.296 c0.163,0,0.296-0.133,0.296-0.296C17.761,14.604,17.628,14.472,17.465,14.472z M17.465,15c-0.129,0-0.232-0.104-0.232-0.232 s0.104-0.232,0.232-0.232c0.128,0,0.232,0.104,0.232,0.232S17.593,15,17.465,15z"/><path d="M17.586,14.699c0-0.056-0.045-0.101-0.101-0.101h-0.142v0.338h0.062V14.8h0.046l0.064,0.137h0.069 l-0.066-0.143C17.559,14.779,17.586,14.742,17.586,14.699z M17.485,14.736h-0.079v-0.074h0.079c0.021,0,0.037,0.017,0.037,0.037 S17.507,14.736,17.485,14.736z"/><g fill="#BF910C"><path d="M14.633 8.022l-1.439-.824-2.878.98c0 0 1.066-.277 1.851-.277.854 0 1.003.46 1.003.46s.264-.476.662-.476c.48 0 .814.28.814.28L14.633 8.022zM11.549 3.87l.241-.256H10.54L9.496 4.456l.924-1.083h1.517V2.93h-1.649L8.813 4.929l.07.344C8.883 5.273 9.696 3.87 11.549 3.87z"/><path d="M10.582 11.396c0-.97.236-1.976.236-1.976s-1.441.1-1.185-1.116c0 0-.314.256-.599.145 0 0 .541-.144.541-.734l.141.43 3.741-1.494 1.473 1.28-.033-.576c-.165.06-.519-.184-.519-.184l.054-.045c0 0 .239.123.453.035l-.033-.568-1.62-2.253-.368.138c0 0-.793-.335-1.562-.335-1.175 0-2.638 1.162-2.638 2.446l.787.058L11.6 5.052 9.44 7.165c0 0-.191-.373-.466-.373-.189 0-.481.226-.481.78 0 .436.214.649.214.649L8.455 8.562c.185 2.73-.124 3.009-.685 2.854l1.096.529c0-1.912-.071-2.493.116-2.493.308 0 .276 1.901.357 2.795 0 0 .791.917 2.363 1.067C11.703 13.313 10.582 12.601 10.582 11.396zM14.143 11.808L13.959 12.297 14.244 12.344zM15.381 6.576v1.622c.721.586 1.182 1.479 1.182 2.477 0 1.383-.883 2.562-2.115 3.005-.521.851-.376 1.352-.311 1.497 2.154-.364 3.801-2.244 3.801-4.502C17.938 8.878 16.894 7.321 15.381 6.576z"/></g><g><path d="M11.611,7.041L11.5,6.972c-0.755,0.142-0.626-0.116-0.81-0.116c0.072-0.071,0.006-0.211,0.198-0.403L10.871,6.43 c-0.468,0.278-0.196,0.449-0.518,0.617l0.012,0.027C10.75,6.944,10.609,7.413,11.611,7.041z"/><path d="M12.111 6.558L12.05 6.533c-.545.255-.543.007-.652.041.056-.094-.107-.208.261-.562l-.005-.035c-.639.425-.334.591-.535.793l.019.025C11.356 6.656 11.372 7.05 12.111 6.558zM10.631 7.383c0 0-.067-.062-.145-.093-.428.044-.365-.125-.513-.118.132-.102-.009-.184.095-.287L10.05 6.863C9.666 7.079 9.898 7.217 9.674 7.309l.011.027C9.901 7.271 9.875 7.622 10.631 7.383zM9.243 7.171c.223.556-.176.945-.337.945s-.26-.202-.26-.202S8.767 8.31 9.012 8.31 9.721 7.724 9.243 7.171z"/><path d="M12.578 6.073L12.537 6.06c-.424.226-.452.053-.516.071.045-.092-.146-.116.128-.468l-.011-.064c-.597.529-.169.546-.427.762l.028.011C11.969 6.184 11.925 6.571 12.578 6.073zM10.259 4.627C8.807 5.347 8.86 6.354 8.86 6.354l.475.022.895-.585C9.593 5.966 8.567 5.888 10.259 4.627zM13.576 6.169c-.779.214-.842-.927-.623-1.165C12.094 5.555 13.148 6.858 13.576 6.169zM14.062 6.697l-.043.024c.454.489.456.149.615.289l.021-.036c-.129-.198.053-.379-.362-.81l-.002.043c.232.304.127.467.196.593C14.377 6.749 14.356 6.952 14.062 6.697z"/><path d="M14.21 6.558l.019-.024C14.097 6.308 14.355 6.258 14 5.749l-.015.066c.16.336.023.407.06.484-.06-.016-.115.103-.313-.131L13.698 6.18C14.013 6.688 14.083 6.373 14.21 6.558zM17.249 11.057c-.054.276-.28.018-.406.666.098.019.184-.2.311-.176.127.025.125.261.222.279C17.501 11.179 17.195 11.333 17.249 11.057z"/><circle cx="17.25" cy="10.675" r=".237"/><path d="M15.384 13.691c.063.076.27-.037.352.062.082.1-.069.28-.006.357.509-.42.174-.495.392-.675C15.903 13.615 15.894 13.271 15.384 13.691zM16.899 12.328c-.144.243-.27-.076-.604.493.085.05.239-.127.351-.062s.031.286.116.337C17.097 12.527 16.756 12.571 16.899 12.328z"/><path d="M15.877 13.296c.075.064.259-.083.356 0 .099.084-.02.288.057.353.429-.502.086-.519.269-.732C16.376 13.13 16.307 12.794 15.877 13.296zM16.824 9.567c.138.646.358.384.418.66-.06-.276.25-.127.112-.772-.097.021-.091.256-.217.282C17.012 9.765 16.921 9.547 16.824 9.567zM16.275 8.504c.34.566.464.246.609.487-.146-.241.195-.2-.145-.767-.084.051-.003.271-.113.338S16.36 8.453 16.275 8.504z"/><path d="M16.594 9.013c.242.614.418.319.521.582-.104-.263.226-.166-.017-.78-.092.036-.047.268-.167.314C16.812 9.177 16.687 8.977 16.594 9.013zM17.133 11.69c-.099.265-.279-.027-.511.591.093.034.215-.167.336-.122.12.046.08.277.172.312C17.361 11.853 17.034 11.955 17.133 11.69zM16.559 8.435c-.183-.214.16-.229-.269-.732-.075.064.042.269-.056.353-.099.084-.282-.064-.357 0C16.307 8.557 16.376 8.221 16.559 8.435zM16.038 7.832c.157-.206-.612-.469-.612-.469S15.88 8.038 16.038 7.832zM14.771 14.02c.048.087.271.015.333.128s-.121.262-.074.349c.58-.314.266-.452.514-.587C15.296 14.044 15.353 13.705 14.771 14.02z"/><path d="M14.164 14.491c0 0 .813.017.736-.23C14.822 14.014 14.164 14.491 14.164 14.491zM10.269 8.805l1.265.177c.042.212.371.412.6.091l.346.099L12.202 9.39l.533.073.209-.411L11.74 8.563 10.269 8.805z"/></g></svg>
